X: 143
T: Tremble, O Tribe of the Enemy
C: Teton Sioux band 1911-1914
N: Derived from sioux139.krn
O: South Dakota, U.S.A.
N: Teton Sioux Music by Frances Densmore, 1918
Z: transcribed to **kern format by Craig Sapp
L: 1/8
M: 2/4
Q: 1/4=58
K: D clef=bass
%%linebreak <none>
(3F F FF2 [I:setbarnb 2]| 
(3F E F D B, | 
D> B,B,2 ||  
[M:3/4]E/ D B,/B,2B,3/ B,/ ||  
[M:2/4](D< B,)B,2) | 
B,4 ]|:  
(3D D DF2 | 
(3F E F D B, | 
D> B,B,2 ||  
E/ D D/B,2B,2 | 
(D< B,)-B,2)-B, F,/ F,/ [I:setbarnb 10]||  
[M:2/4]F,> F,F,2 | 
(3F, E, F, D, B,, | 
D,> D,D,2 ||  
[M:3/4]E,/ D, B,,/B,,2B,,3/ B,,/ ||  
[M:2/4]B,,4 | 
B,,4 :|]  



